X: 19132
T: Irish Washerwoman, The
R: jig
M: 6/8
K: Gmajor
dc|:"G"BGG DGG|BGB dcB|"Am"cAA EAA|cAc "D"edc|
"G"BGG DGG|BGB dcB|"Am"cBc "D"Adc|1 "G"BGG Gdc:|2 "G"BGG Gga||
|:"G"bgg dgg|bgb bag|"D"aff dff|afa agf|
"C"egg "G"dgg|"C"cgg "G"B2B|"Am"cBc "D"Adc|1 "G"BGG Gga:|2 "G"BGG G3||

